www/assets/icons/running_with_errors.svg

<svg xmlns="http://www.w3.org/2000/svg" width="24" height="24" viewBox="0 0 24 24" fill='currentColor'><path d="M22 10v8h-2v-8zm-2 10v2h2v-2zm-2-2.71A8 8 0 0 1 12 20c-4.41 0-8-3.59-8-8s3.59-8 8-8v9l7.55-7.55A9.97 9.97 0 0 0 12 2C6.48 2 2 6.48 2 12s4.48 10 10 10c2.25 0 4.33-.74 6-2z"/></svg>

<svg width="24" height="24" viewBox="0 0 24 24" xmlns="http://www.w3.org/2000/svg" fill='currentColor'><path d="M22 10V18H20V10H22ZM20 20V22H22V20H20ZM18 17.29C16.53 18.95 14.39 20 12 20C7.59 20 4 16.41 4 12C4 7.59 7.59 4 12 4V13L19.55 5.45C17.72 3.34 15.02 2 12 2C6.48 2 2 6.48 2 12C2 17.52 6.48 22 12 22C14.25 22 16.33 21.26 18 20V17.29Z"/></svg>
